X:0346
M:C|
L:1/8
Q:1/2=104
K:D
fgab afda  |bgeg fedA|B/B/B ba b2{bc'}d'2| fdaf           Te2d2 |
fgab afda  |bgeg fedA|BdAd     GdFd      |(f/e/)(d/c/) dF TE2D2:|

